X:1
T:Dedicated To You
T:Dedicated To You
C:Saul Chaplin
Z:All Rights Reserved
L:1/8
M:4/4
K:Bb
V:1 treble nm="Voice"
%%MIDI program 52
V:1
"Bbmaj7" z dcB A2 F2 |"Eb9" G A2 G- G4 |"Bbmaj7" z dcB A2 F2 |"Dm7" G A2 G-"G7" G3 G | %4
w: If I should write a|book for you, _|That brought me fame and|for- tune too, _ That|
"Cm7b5" _G2 G2"F7b9" _G2 _AG |"Bbmaj7" F2 =G2"Am7""D7b9" =A4 |"Gm7" z2 BA"C7" (3G2 A2 B2 | %7
w: book would be, like my|heart and me,|"Ded- i- cat- ed to|
"Cm7" c4"F7b9" ^c4 |"Bbmaj7" z dcB A2 F2 |"Eb9" G A2 G- G4 |"Bbmaj7" z dcB A2 F2 | %11
w: you!" And|if i should paint a|pic- ture too, _|That showed the lov- li-|
"Dm7" G A2 G-"G7" G3 G |"Cm7b5" _G2 G2"F7b9" _G2 _AG |"Bbmaj7" F2 =G2"Am7""D7b9" =A4 | %14
w: nes of you, _ The|art would be, like my|heart and me,|
"Cm7" z2 BA"F13b9" (3d2 d2 d2 |"Bb6/C" B6"Em7""A7" A2 |"Dmaj7" d6 ^c2 | %17
w: "Ded- i- cat- ed to|you!" To|you, be-|
"Bm7" =e2 d2"E7b9" ^c2 =B=c |"Em7" A A2 ^F"A7" (3A2 ^A2 =B2 |"Dmaj7""Gm7" =A6"C7b9" _B2 | %20
w: cause your love is the|bea- con that lights up my|way, Toy|
"Fmaj7" c4-"D7b9" cdAB |"Gm7" c2 d2"C13b9" A3 B |"F9sus4" (3c2 c2 c2 c2 cc |"F+7" (3^c2 c2 c2 c4 | %24
w: you _ be- cause with|you, I know, a|life- time could be just one|heav- en- ly day.|
"Bbmaj7" z dcB A2 F2 |"Eb9" G A2 G- G4 |"Bbmaj7" z dcB A2 F2 |"Dm7" G A2 G-"G7" G3 G | %28
w: If I should find a|twink- ling star, _|one half so won- drous|as you are, _ That|
"Cm7b5" _G2 G2"F7b9" _G2 _AG |"Bbmaj7" F2 =G2"Gm9" =A4 |"Cm7" z2 BA"F13b9" (3d2 d2 d2 |1 %31
w: star would be, like my|heart and me,|"Ded- i- cat- ed to|
"Bb6""Cm7" B6"F7b9" z2 :|2"Bb6" B6 z2 |] %33
w: you!"|you!"|

